X:128
T:Mother McAuley's Jig 
R:double jig
C: 2006, 2010 L.E. McCullough 
M:6/8
L:1/8
K:G
GA|:BGG AGA|Bde dBG|~A3 AGA|FGA cBA|
BGG AGA|Bde dBG|gfe dBG|1 AGF G2A:|2 AGF G2d|]
|:~e3 ~B3|eBe gfe|~f2d ~f3|efg agf|
~e3 ~B3|eBe gfe|fga gfe|1 ~f2d e2d:|2 dBG ABA|]

